X:1
T: Maid on the Green
P:Roche version
R:Jig
Q:180
K:G
M:6/8
L:1/16
|:ef|g2f2g2 e2d2c2|B2c2d2 e2d2c2|B2G2G2 d2G2G2|B2A2A2 A2B2d2|
g2f2g2 e2d2c2|B2c2d2 e2d2c2|B2A2B2 G4B2|A2G2F2 G4:|
|:ef|g2f2g2 a2f2d2|d2f2g2 a4f2|g2f2g2 e2a2g2|f2e2d2 g4a2|
b2a2g2 a2g2f2|g2f2g2 e2d2c2|B2c2d2 e2d2c2|B2G2G2 G4:|
